Newaita-dark/apps/22/software-properties.svg

<?xml version="1.0" encoding="UTF-8"?>
<svg xmlns="http://www.w3.org/2000/svg" xmlns:xlink="http://www.w3.org/1999/xlink" width="22pt" height="22pt" viewBox="0 0 22 22" version="1.1">
<defs>
<linearGradient id="linear0" gradientUnits="userSpaceOnUse" x1="254" y1="233.5" x2="254" y2="254.666672" gradientTransform="matrix(0.0429729,0,0,0.0429729,-0.00000262285,9.239165)">
<stop offset="0" style="stop-color:rgb(0%,0%,0%);stop-opacity:0.27451;"/>
<stop offset="1" style="stop-color:rgb(0%,0%,0%);stop-opacity:0;"/>
</linearGradient>
<radialGradient id="radial0" gradientUnits="userSpaceOnUse" cx="450.908936" cy="189.579361" fx="450.908936" fy="189.579361" r="21.166656" gradientTransform="matrix(0.000000119742,-0.0537161,-0.0966889,-0.0000000698078,36.522014,43.721791)">
<stop offset="0" style="stop-color:rgb(0%,0%,0%);stop-opacity:0.313725;"/>
<stop offset="0.222222" style="stop-color:rgb(0%,0%,0%);stop-opacity:0.27451;"/>
<stop offset="1" style="stop-color:rgb(0%,0%,0%);stop-opacity:0;"/>
</radialGradient>
<radialGradient id="radial1" gradientUnits="userSpaceOnUse" cx="450.908936" cy="189.579361" fx="450.908936" fy="189.579361" r="21.166656" gradientTransform="matrix(-0.000000119742,0.0537161,0.0966889,0.0000000698078,-14.578108,-5.175142)">
<stop offset="0" style="stop-color:rgb(0%,0%,0%);stop-opacity:0.313725;"/>
<stop offset="0.222222" style="stop-color:rgb(0%,0%,0%);stop-opacity:0.27451;"/>
<stop offset="1" style="stop-color:rgb(0%,0%,0%);stop-opacity:0;"/>
</radialGradient>
<radialGradient id="radial2" gradientUnits="userSpaceOnUse" cx="450.908936" cy="189.579361" fx="450.908936" fy="189.579361" r="21.166656" gradientTransform="matrix(-0.000000119742,-0.0537161,0.0966889,-0.0000000698078,-14.578108,43.721791)">
<stop offset="0" style="stop-color:rgb(0%,0%,0%);stop-opacity:0.313725;"/>
<stop offset="0.222222" style="stop-color:rgb(0%,0%,0%);stop-opacity:0.27451;"/>
<stop offset="1" style="stop-color:rgb(0%,0%,0%);stop-opacity:0;"/>
</radialGradient>
<radialGradient id="radial3" gradientUnits="userSpaceOnUse" cx="450.908936" cy="189.579361" fx="450.908936" fy="189.579361" r="21.166656" gradientTransform="matrix(0.000000119742,0.0537161,-0.0966889,0.0000000698078,36.522013,-5.175142)">
<stop offset="0" style="stop-color:rgb(0%,0%,0%);stop-opacity:0.313725;"/>
<stop offset="0.222222" style="stop-color:rgb(0%,0%,0%);stop-opacity:0.27451;"/>
<stop offset="1" style="stop-color:rgb(0%,0%,0%);stop-opacity:0;"/>
</radialGradient>
<linearGradient id="linear1" gradientUnits="userSpaceOnUse" x1="254" y1="-168.666656" x2="254" y2="233.5" gradientTransform="matrix(0.0429729,0,0,0.0429729,0,9.239163)">
<stop offset="0" style="stop-color:rgb(73.72549%,66.666667%,64.313725%);stop-opacity:1;"/>
<stop offset="1" style="stop-color:rgb(63.137255%,53.333333%,49.803922%);stop-opacity:1;"/>
</linearGradient>
<linearGradient id="linear2" gradientUnits="userSpaceOnUse" x1="328.083344" y1="-73.416664" x2="328.083344" y2="143.541672" gradientTransform="matrix(1,0,0,1,-10.583333,0)">
<stop offset="0" style="stop-color:rgb(42.745098%,29.803922%,25.490196%);stop-opacity:1;"/>
<stop offset="1" style="stop-color:rgb(47.45098%,33.333333%,28.235294%);stop-opacity:1;"/>
</linearGradient>
<linearGradient id="linear3" gradientUnits="userSpaceOnUse" x1="328.083344" y1="5.958333" x2="328.083344" y2="-36.375" gradientTransform="matrix(1.5,0,0,1.5,-174.624863,-2.979164)">
<stop offset="0" style="stop-color:rgb(40%,73.333333%,41.568627%);stop-opacity:1;"/>
<stop offset="1" style="stop-color:rgb(64.705882%,83.921569%,65.490196%);stop-opacity:1;"/>
</linearGradient>
<linearGradient id="linear4" gradientUnits="userSpaceOnUse" x1="328.083344" y1="-73.416664" x2="328.083344" y2="143.541672" gradientTransform="matrix(1,0,0,1,74.083336,0)">
<stop offset="0" style="stop-color:rgb(42.745098%,29.803922%,25.490196%);stop-opacity:1;"/>
<stop offset="1" style="stop-color:rgb(47.45098%,33.333333%,28.235294%);stop-opacity:1;"/>
</linearGradient>
<linearGradient id="linear5" gradientUnits="userSpaceOnUse" x1="328.083344" y1="5.958333" x2="328.083344" y2="-36.375" gradientTransform="matrix(1.5,0,0,1.5,-89.958206,102.854172)">
<stop offset="0" style="stop-color:rgb(40%,73.333333%,41.568627%);stop-opacity:1;"/>
<stop offset="1" style="stop-color:rgb(64.705882%,83.921569%,65.490196%);stop-opacity:1;"/>
</linearGradient>
<linearGradient id="linear6" gradientUnits="userSpaceOnUse" x1="254" y1="143.541672" x2="254" y2="-168.666672" gradientTransform="matrix(3.779528,0,0,3.779528,0,812.59845)">
<stop offset="0" style="stop-color:rgb(40%,73.333333%,41.568627%);stop-opacity:1;"/>
<stop offset="1" style="stop-color:rgb(64.705882%,83.921569%,65.490196%);stop-opacity:1;"/>
</linearGradient>
</defs>
<g id="surface1">
<path style=" stroke:none;fill-rule:nonzero;fill:url(#linear0);" d="M 3.523438 19.273438 L 18.417969 19.273438 L 18.417969 20.183594 L 3.523438 20.183594 Z M 3.523438 19.273438 "/>
<path style=" stroke:none;fill-rule:nonzero;fill:url(#radial0);" d="M 18.417969 19.273438 L 20.238281 19.273438 L 20.238281 18.363281 L 18.417969 18.363281 Z M 18.417969 19.273438 "/>
<path style=" stroke:none;fill-rule:nonzero;fill:url(#radial1);" d="M 3.523438 19.273438 L 1.707031 19.273438 L 1.707031 20.183594 L 3.523438 20.183594 Z M 3.523438 19.273438 "/>
<path style=" stroke:none;fill-rule:nonzero;fill:url(#radial2);" d="M 3.523438 19.273438 L 1.707031 19.273438 L 1.707031 18.363281 L 3.523438 18.363281 Z M 3.523438 19.273438 "/>
<path style=" stroke:none;fill-rule:nonzero;fill:url(#radial3);" d="M 18.417969 19.273438 L 20.238281 19.273438 L 20.238281 20.183594 L 18.417969 20.183594 Z M 18.417969 19.273438 "/>
<path style=" stroke:none;fill-rule:nonzero;fill:url(#linear1);" d="M 2.5 1.992188 L 19.328125 1.992188 C 19.707031 1.992188 20.011719 2.296875 20.011719 2.671875 L 20.011719 18.589844 C 20.011719 18.96875 19.707031 19.273438 19.328125 19.273438 L 2.5 19.273438 C 2.125 19.273438 1.820312 18.96875 1.820312 18.589844 L 1.820312 2.671875 C 1.820312 2.296875 2.125 1.992188 2.5 1.992188 Z M 2.5 1.992188 "/>
<path style=" stroke:none;fill-rule:nonzero;fill:rgb(0%,0%,0%);fill-opacity:0.196078;" d="M 1.820312 16.542969 L 20.011719 16.542969 L 20.011719 16.660156 L 1.820312 16.660156 Z M 1.820312 16.542969 "/>
<path style=" stroke:none;fill-rule:nonzero;fill:rgb(90.196079%,90.196079%,90.196079%);fill-opacity:0.588235;" d="M 1.820312 16.660156 L 20.011719 16.660156 L 20.011719 16.773438 L 1.820312 16.773438 Z M 1.820312 16.660156 "/>
<path style=" stroke:none;fill-rule:nonzero;fill:rgb(12.941177%,12.941177%,12.941177%);fill-opacity:0.992157;" d="M 1.820312 16.601562 L 20.011719 16.601562 L 20.011719 16.714844 L 1.820312 16.714844 Z M 1.820312 16.601562 "/>
<path style=" stroke:none;fill-rule:nonzero;fill:rgb(0%,0%,0%);fill-opacity:0.196078;" d="M 2.730469 19.273438 C 2.226562 19.273438 1.820312 18.867188 1.820312 18.363281 L 1.820312 18.25 C 1.820312 18.753906 2.226562 19.160156 2.730469 19.160156 L 19.101562 19.160156 C 19.605469 19.160156 20.011719 18.753906 20.011719 18.25 L 20.011719 18.363281 C 20.011719 18.867188 19.605469 19.273438 19.101562 19.273438 Z M 2.730469 19.273438 "/>
<path style=" stroke:none;fill-rule:nonzero;fill:rgb(90.196079%,90.196079%,90.196079%);fill-opacity:0.588235;" d="M 2.730469 1.992188 C 2.226562 1.992188 1.820312 2.398438 1.820312 2.902344 L 1.820312 3.015625 C 1.820312 2.511719 2.226562 2.105469 2.730469 2.105469 L 19.101562 2.105469 C 19.605469 2.105469 20.011719 2.511719 20.011719 3.015625 L 20.011719 2.902344 C 20.011719 2.398438 19.605469 1.992188 19.101562 1.992188 Z M 2.730469 1.992188 "/>
<path style=" stroke:none;fill-rule:nonzero;fill:rgb(12.941177%,12.941177%,12.941177%);fill-opacity:1;" d="M 2.5 1.925781 C 2.089844 1.925781 1.753906 2.261719 1.753906 2.671875 L 1.753906 18.589844 C 1.753906 19.003906 2.089844 19.335938 2.5 19.335938 L 19.328125 19.335938 C 19.742188 19.335938 20.074219 19.003906 20.074219 18.589844 L 20.074219 2.671875 C 20.074219 2.261719 19.742188 1.925781 19.328125 1.925781 Z M 2.5 2.054688 L 19.328125 2.054688 C 19.671875 2.054688 19.945312 2.328125 19.945312 2.671875 L 19.945312 18.589844 C 19.945312 18.933594 19.671875 19.207031 19.328125 19.207031 L 2.5 19.207031 C 2.15625 19.207031 1.882812 18.933594 1.882812 18.589844 L 1.882812 2.671875 C 1.882812 2.328125 2.15625 2.054688 2.5 2.054688 Z M 2.5 2.054688 "/>
<path style=" stroke:none;fill-rule:nonzero;fill:rgb(0%,0%,0%);fill-opacity:0.235294;" d="M 2.734375 11.480469 C 2.734375 11.5 2.734375 11.519531 2.734375 11.542969 C 2.734375 11.710938 2.734375 11.824219 2.847656 11.996094 L 6.367188 15.179688 C 6.480469 15.351562 6.652344 15.4375 6.820312 15.4375 C 6.992188 15.4375 7.164062 15.351562 7.277344 15.179688 L 10.796875 11.996094 C 10.910156 11.824219 10.910156 11.710938 10.910156 11.542969 C 10.910156 11.519531 10.910156 11.5 10.910156 11.480469 C 10.90625 11.597656 10.882812 11.695312 10.796875 11.824219 L 7.277344 15.007812 C 7.164062 15.179688 6.992188 15.265625 6.820312 15.265625 C 6.652344 15.265625 6.480469 15.179688 6.367188 15.007812 L 2.847656 11.824219 C 2.757812 11.695312 2.738281 11.597656 2.734375 11.480469 Z M 2.734375 11.480469 "/>
<path style="fill-rule:nonzero;fill:url(#linear2);stroke-width:3;stroke-linecap:round;stroke-linejoin:miter;stroke:rgb(12.941177%,12.941177%,12.941177%);stroke-opacity:1;stroke-miterlimit:4;" d="M 317.515133 -73.377161 C 323.33276 -73.377161 328.059581 -68.650339 328.059581 -62.832713 L 328.059581 132.966771 C 328.059581 138.784397 323.33276 143.511218 317.515133 143.511218 C 311.697507 143.511218 306.879785 138.784397 306.879785 132.966771 L 306.879785 -62.832713 C 306.879785 -68.650339 311.697507 -73.377161 317.515133 -73.377161 Z M 317.515133 -73.377161 " transform="matrix(0.0429729,0,0,0.0429729,0,9.239163)"/>
<path style="fill-rule:nonzero;fill:url(#linear3);stroke-width:3;stroke-linecap:round;stroke-linejoin:miter;stroke:rgb(12.941177%,12.941177%,12.941177%);stroke-opacity:1;stroke-miterlimit:4;" d="M 317.515133 -57.560489 C 335.058913 -57.560489 349.239377 -43.289125 349.239377 -25.836246 C 349.239377 -8.292467 335.058913 5.978898 317.515133 5.978898 C 299.971354 5.978898 285.79089 -8.292467 285.79089 -25.836246 C 285.79089 -43.289125 299.971354 -57.560489 317.515133 -57.560489 Z M 317.515133 -57.560489 " transform="matrix(0.0429729,0,0,0.0429729,0,9.239163)"/>
<path style="fill-rule:nonzero;fill:url(#linear4);stroke-width:3;stroke-linecap:round;stroke-linejoin:miter;stroke:rgb(12.941177%,12.941177%,12.941177%);stroke-opacity:1;stroke-miterlimit:4;" d="M 402.143415 -73.377161 C 408.051942 -73.377161 412.778763 -68.650339 412.778763 -62.832713 L 412.778763 132.966771 C 412.778763 138.784397 408.051942 143.511218 402.143415 143.511218 C 396.325789 143.511218 391.598968 138.784397 391.598968 132.966771 L 391.598968 -62.832713 C 391.598968 -68.650339 396.325789 -73.377161 402.143415 -73.377161 Z M 402.143415 -73.377161 " transform="matrix(0.0429729,0,0,0.0429729,0,9.239163)"/>
<path style="fill-rule:nonzero;fill:url(#linear5);stroke-width:3;stroke-linecap:round;stroke-linejoin:miter;stroke:rgb(12.941177%,12.941177%,12.941177%);stroke-opacity:1;stroke-miterlimit:4;" d="M 402.143415 48.247588 C 419.687195 48.247588 433.958559 62.518953 433.958559 80.062732 C 433.958559 97.606511 419.687195 111.786975 402.143415 111.786975 C 384.599636 111.786975 370.419172 97.606511 370.419172 80.062732 C 370.419172 62.518953 384.599636 48.247588 402.143415 48.247588 Z M 402.143415 48.247588 " transform="matrix(0.0429729,0,0,0.0429729,0,9.239163)"/>
<path style=" stroke:none;fill-rule:nonzero;fill:rgb(0%,0%,0%);fill-opacity:0.196078;" d="M 2.730469 19.273438 C 2.226562 19.273438 1.820312 18.867188 1.820312 18.363281 L 1.820312 18.25 C 1.820312 18.753906 2.226562 19.160156 2.730469 19.160156 L 19.101562 19.160156 C 19.605469 19.160156 20.011719 18.753906 20.011719 18.25 L 20.011719 18.363281 C 20.011719 18.867188 19.605469 19.273438 19.101562 19.273438 Z M 2.730469 19.273438 "/>
<path style="fill-rule:nonzero;fill:url(#linear6);stroke-width:11.338583;stroke-linecap:round;stroke-linejoin:miter;stroke:rgb(12.941177%,12.941177%,12.941177%);stroke-opacity:1;stroke-miterlimit:4;" d="M 219.878799 175.215918 C 186.89698 175.215918 160.099251 202.013647 160.099251 234.995467 L 160.099251 355.241685 C 160.099251 388.223505 186.89698 415.021234 219.878799 415.021234 L 399.904566 415.021234 L 399.904566 935.172019 L 320.542062 935.172019 C 270.382211 935.172019 240.492437 965.061793 240.492437 1015.221644 C 240.492437 1029.994751 240.492437 1039.958009 250.455695 1055.074677 L 560.003817 1335.076585 C 569.967075 1350.193253 585.083743 1357.751587 599.85685 1357.751587 C 614.973517 1357.751587 630.090185 1350.193253 640.053443 1335.076585 L 949.601565 1055.074677 C 959.564823 1039.958009 959.564823 1029.994751 959.564823 1015.221644 C 959.564823 965.061793 929.675049 935.172019 879.515198 935.172019 L 800.152694 935.172019 L 800.152694 415.021234 L 1699.937968 415.021234 C 1733.263349 415.021234 1760.061077 388.223505 1760.061077 355.241685 L 1760.061077 234.995467 C 1760.061077 202.013647 1733.263349 175.215918 1699.937968 175.215918 Z M 219.878799 175.215918 " transform="matrix(0.0113699,0,0,0.0113699,0,0)"/>
<path style=" stroke:none;fill-rule:nonzero;fill:rgb(90.196079%,90.196079%,90.196079%);fill-opacity:0.588235;" d="M 2.730469 1.992188 C 2.226562 1.992188 1.820312 2.398438 1.820312 2.902344 L 1.820312 3.015625 C 1.820312 2.511719 2.226562 2.105469 2.730469 2.105469 L 19.101562 2.105469 C 19.605469 2.105469 20.011719 2.511719 20.011719 3.015625 L 20.011719 2.902344 C 20.011719 2.398438 19.605469 1.992188 19.101562 1.992188 Z M 2.730469 1.992188 "/>
</g>
</svg>

<svg xmlns="http://www.w3.org/2000/svg" width="22pt" height="22pt" viewBox="0 0 22 22"><defs><linearGradient id="a" gradientUnits="userSpaceOnUse" x1="254" y1="233.5" x2="254" y2="254.667" gradientTransform="matrix(.04297 0 0 .04297 0 9.24)"><stop offset="0" stop-opacity=".275"/><stop offset="1" stop-opacity="0"/></linearGradient><radialGradient id="b" gradientUnits="userSpaceOnUse" cx="450.909" cy="189.579" fx="450.909" fy="189.579" r="21.167" gradientTransform="matrix(0 -.05372 -.09669 0 36.522 43.722)"><stop offset="0" stop-opacity=".314"/><stop offset=".222" stop-opacity=".275"/><stop offset="1" stop-opacity="0"/></radialGradient><radialGradient id="c" gradientUnits="userSpaceOnUse" cx="450.909" cy="189.579" fx="450.909" fy="189.579" r="21.167" gradientTransform="matrix(0 .05372 .09669 0 -14.578 -5.175)"><stop offset="0" stop-opacity=".314"/><stop offset=".222" stop-opacity=".275"/><stop offset="1" stop-opacity="0"/></radialGradient><radialGradient id="d" gradientUnits="userSpaceOnUse" cx="450.909" cy="189.579" fx="450.909" fy="189.579" r="21.167" gradientTransform="matrix(0 -.05372 .09669 0 -14.578 43.722)"><stop offset="0" stop-opacity=".314"/><stop offset=".222" stop-opacity=".275"/><stop offset="1" stop-opacity="0"/></radialGradient><radialGradient id="e" gradientUnits="userSpaceOnUse" cx="450.909" cy="189.579" fx="450.909" fy="189.579" r="21.167" gradientTransform="matrix(0 .05372 -.09669 0 36.522 -5.175)"><stop offset="0" stop-opacity=".314"/><stop offset=".222" stop-opacity=".275"/><stop offset="1" stop-opacity="0"/></radialGradient><linearGradient id="f" gradientUnits="userSpaceOnUse" x1="254" y1="-168.667" x2="254" y2="233.5" gradientTransform="matrix(.04297 0 0 .04297 0 9.24)"><stop offset="0" stop-color="#bcaaa4"/><stop offset="1" stop-color="#a1887f"/></linearGradient><linearGradient id="g" gradientUnits="userSpaceOnUse" x1="328.083" y1="-73.417" x2="328.083" y2="143.542" gradientTransform="translate(-10.583)"><stop offset="0" stop-color="#6d4c41"/><stop offset="1" stop-color="#795548"/></linearGradient><linearGradient id="h" gradientUnits="userSpaceOnUse" x1="328.083" y1="5.958" x2="328.083" y2="-36.375" gradientTransform="matrix(1.5 0 0 1.5 -174.625 -2.98)"><stop offset="0" stop-color="#66bb6a"/><stop offset="1" stop-color="#a5d6a7"/></linearGradient><linearGradient id="i" gradientUnits="userSpaceOnUse" x1="328.083" y1="-73.417" x2="328.083" y2="143.542" gradientTransform="translate(74.083)"><stop offset="0" stop-color="#6d4c41"/><stop offset="1" stop-color="#795548"/></linearGradient><linearGradient id="j" gradientUnits="userSpaceOnUse" x1="328.083" y1="5.958" x2="328.083" y2="-36.375" gradientTransform="matrix(1.5 0 0 1.5 -89.958 102.854)"><stop offset="0" stop-color="#66bb6a"/><stop offset="1" stop-color="#a5d6a7"/></linearGradient><linearGradient id="k" gradientUnits="userSpaceOnUse" x1="254" y1="143.542" x2="254" y2="-168.667" gradientTransform="matrix(3.77953 0 0 3.77953 0 812.598)"><stop offset="0" stop-color="#66bb6a"/><stop offset="1" stop-color="#a5d6a7"/></linearGradient></defs><path d="M3.523 19.273h14.895v.91H3.523zm0 0" fill="url(#a)"/><path d="M18.418 19.273h1.82v-.91h-1.82zm0 0" fill="url(#b)"/><path d="M3.523 19.273H1.707v.91h1.816zm0 0" fill="url(#c)"/><path d="M3.523 19.273H1.707v-.91h1.816zm0 0" fill="url(#d)"/><path d="M18.418 19.273h1.82v.91h-1.82zm0 0" fill="url(#e)"/><path d="M2.5 1.992h16.828c.379 0 .684.305.684.68V18.59a.682.682 0 0 1-.684.683H2.5a.681.681 0 0 1-.68-.683V2.672a.68.68 0 0 1 .68-.68zm0 0" fill="url(#f)"/><path d="M1.82 16.543h18.192v.117H1.82zm0 0" fill-opacity=".196"/><path d="M1.82 16.66h18.192v.113H1.82zm0 0" fill="#e6e6e6" fill-opacity=".588"/><path d="M1.82 16.602h18.192v.113H1.82zm0 0" fill="#212121" fill-opacity=".992"/><path d="M2.73 19.273a.909.909 0 0 1-.91-.91v-.113c0 .504.407.91.91.91h16.372c.503 0 .91-.406.91-.91v.113c0 .504-.407.91-.91.91zm0 0" fill-opacity=".196"/><path d="M2.73 1.992a.909.909 0 0 0-.91.91v.114c0-.504.407-.91.91-.91h16.372c.503 0 .91.406.91.91v-.114a.909.909 0 0 0-.91-.91zm0 0" fill="#e6e6e6" fill-opacity=".588"/><path d="M2.5 1.926a.749.749 0 0 0-.746.746V18.59c0 .414.336.746.746.746h16.828a.744.744 0 0 0 .746-.746V2.672a.746.746 0 0 0-.746-.746zm0 .129h16.828c.344 0 .617.273.617.617V18.59a.614.614 0 0 1-.617.617H2.5a.614.614 0 0 1-.617-.617V2.672c0-.344.273-.617.617-.617zm0 0" fill="#212121"/><path d="M2.734 11.48v.063c0 .168 0 .281.114.453l3.52 3.184a.545.545 0 0 0 .452.258.547.547 0 0 0 .457-.258l3.52-3.184c.113-.172.113-.285.113-.453v-.063a.599.599 0 0 1-.113.344l-3.52 3.184a.547.547 0 0 1-.457.258.545.545 0 0 1-.453-.258l-3.52-3.184a.571.571 0 0 1-.113-.344zm0 0" fill-opacity=".235"/><path d="M317.515-73.377c5.818 0 10.545 4.727 10.545 10.544v195.8c0 5.817-4.727 10.544-10.545 10.544-5.817 0-10.635-4.727-10.635-10.544v-195.8c0-5.817 4.818-10.544 10.635-10.544zm0 0" transform="matrix(.04297 0 0 .04297 0 9.24)" fill="url(#g)" stroke-width="3" stroke-linecap="round" stroke="#212121"/><path d="M317.515-57.56c17.544 0 31.724 14.27 31.724 31.724 0 17.544-14.18 31.815-31.724 31.815s-31.724-14.271-31.724-31.815c0-17.453 14.18-31.724 31.724-31.724zm0 0" transform="matrix(.04297 0 0 .04297 0 9.24)" fill="url(#h)" stroke-width="3" stroke-linecap="round" stroke="#212121"/><path d="M402.143-73.377c5.909 0 10.636 4.727 10.636 10.544v195.8c0 5.817-4.727 10.544-10.636 10.544-5.817 0-10.544-4.727-10.544-10.544v-195.8c0-5.817 4.727-10.544 10.544-10.544zm0 0" transform="matrix(.04297 0 0 .04297 0 9.24)" fill="url(#i)" stroke-width="3" stroke-linecap="round" stroke="#212121"/><path d="M402.143 48.248c17.544 0 31.816 14.271 31.816 31.815s-14.272 31.724-31.816 31.724c-17.543 0-31.724-14.18-31.724-31.724s14.18-31.815 31.724-31.815zm0 0" transform="matrix(.04297 0 0 .04297 0 9.24)" fill="url(#j)" stroke-width="3" stroke-linecap="round" stroke="#212121"/><path d="M2.73 19.273a.909.909 0 0 1-.91-.91v-.113c0 .504.407.91.91.91h16.372c.503 0 .91-.406.91-.91v.113c0 .504-.407.91-.91.91zm0 0" fill-opacity=".196"/><path d="M219.879 175.216c-32.982 0-59.78 26.798-59.78 59.78v120.246c0 32.982 26.798 59.78 59.78 59.78h180.026v520.15h-79.363c-50.16 0-80.05 29.89-80.05 80.05 0 14.773 0 24.736 9.964 39.853l309.548 280.002c9.963 15.116 25.08 22.675 39.853 22.675 15.117 0 30.233-7.559 40.196-22.675l309.549-280.002c9.963-15.117 9.963-25.08 9.963-39.853 0-50.16-29.89-80.05-80.05-80.05h-79.362v-520.15h899.785c33.325 0 60.123-26.798 60.123-59.78V234.995c0-32.981-26.798-59.78-60.123-59.78zm0 0" transform="rotate(.24) scale(.01137)" fill="url(#k)" stroke-width="11.339" stroke-linecap="round" stroke="#212121"/><path d="M2.73 1.992a.909.909 0 0 0-.91.91v.114c0-.504.407-.91.91-.91h16.372c.503 0 .91.406.91.91v-.114a.909.909 0 0 0-.91-.91zm0 0" fill="#e6e6e6" fill-opacity=".588"/></svg>
